src/Icon/svgs/bell.svg

<svg width="24" height="24" viewBox="0 0 24 24" fill="none" xmlns="http://www.w3.org/2000/svg">
<path fill-rule="evenodd" clip-rule="evenodd" d="M10.5 4.16109V3.5C10.5 2.67157 11.1716 2 12 2C12.8284 2 13.5 2.67157 13.5 3.5V4.16109C16.6452 4.84776 19 7.64888 19 11V16.5L20 17V19H4V17L5 16.5V11C5 7.64888 7.35482 4.84776 10.5 4.16109ZM10 20H14C14 21.1046 13.1046 22 12 22C10.8954 22 10 21.1046 10 20Z" fill="#1B1C1D"/>
</svg>

<svg xmlns="http://www.w3.org/2000/svg" width="24" height="24" fill="none"><path fill-rule="evenodd" d="M10.5 4.161V3.5a1.5 1.5 0 1 1 3 0v.661C16.645 4.848 19 7.649 19 11v5.5l1 .5v2H4v-2l1-.5V11c0-3.351 2.355-6.152 5.5-6.839zM10 20h4a2 2 0 1 1-4 0z" fill="#1B1C1D"/></svg>
